images/svg-master/iconBubble.svg

<?xml version="1.0" encoding="utf-8"?>
<!-- Generator: Adobe Illustrator 21.1.0, SVG Export Plug-In . SVG Version: 6.00 Build 0)  -->
<svg version="1.1" id="bubble" xmlns="http://www.w3.org/2000/svg" xmlns:xlink="http://www.w3.org/1999/xlink" x="0px" y="0px"
	 viewBox="0 0 54 46" style="enable-background:new 0 0 54 46;" xml:space="preserve">
<title>iconBubble</title>
<path d="M49,13h-6V5c0-2.2-1.8-4-4-4H5C2.8,1,1,2.8,1,5v22c0,2.2,1.8,4,4,4h2v9c0,0.6,0.4,1,1,1c0.3,0,0.5-0.1,0.7-0.3l9.7-9.7H21v2
	c0,2.2,1.8,4,4,4h12.6l7.7,7.7c0.4,0.4,1,0.4,1.4,0c0.2-0.2,0.3-0.4,0.3-0.7v-7h2c2.2,0,4-1.8,4-4V17C53,14.8,51.2,13,49,13z M18,29
	c-0.3,0-0.5,0.1-0.7,0.3L9,37.6V30c0-0.6-0.4-1-1-1H5c-1.1,0-2-0.9-2-2V5c0-1.1,0.9-2,2-2h34c1.1,0,2,0.9,2,2v22c0,1.1-0.9,2-2,2H18
	z M51,33c0,1.1-0.9,2-2,2h-3c-0.6,0-1,0.4-1,1v5.6l-6.3-6.3C38.5,35.1,38.3,35,38,35H25c-1.1,0-2-0.9-2-2v-2h16c2.2,0,4-1.8,4-4V15
	h6c1.1,0,2,0.9,2,2V33z M30,13h-5V8c0-0.6-0.4-1-1-1h-4c-0.6,0-1,0.4-1,1v5h-5c-0.6,0-1,0.4-1,1v4c0,0.6,0.4,1,1,1h5v5
	c0,0.3,0.1,0.5,0.3,0.7c0.2,0.2,0.4,0.3,0.7,0.3h4c0.6,0,1-0.4,1-1v-5h5c0.6,0,1-0.4,1-1v-4c0-0.3-0.1-0.5-0.3-0.7
	C30.5,13.1,30.3,13,30,13z M29,17h-5c-0.6,0-1,0.4-1,1v5h-2v-5c0-0.6-0.4-1-1-1h-5v-2h5c0.6,0,1-0.4,1-1V9h2v5c0,0.6,0.4,1,1,1h5V17
	z"/>
</svg>

<svg id="1b7cd5c9-ddf1-4680-a1a1-9397e8468cde" data-name="bubble" xmlns="http://www.w3.org/2000/svg" viewBox="0 0 54 46"><title>iconBubble</title><path d="M49,13H43V5a4,4,0,0,0-4-4H5A4,4,0,0,0,1,5V27a4,4,0,0,0,4,4H7v9a1,1,0,0,0,1.71.71L18.41,31H21v2a4,4,0,0,0,4,4H37.58l7.71,7.71A1,1,0,0,0,47,44V37h2a4,4,0,0,0,4-4V17A4,4,0,0,0,49,13ZM18,29a1,1,0,0,0-.71.29L9,37.58V30a1,1,0,0,0-1-1H5a2,2,0,0,1-2-2V5A2,2,0,0,1,5,3H39a2,2,0,0,1,2,2V27a2,2,0,0,1-2,2Zm33,4a2,2,0,0,1-2,2H46a1,1,0,0,0-1,1v5.59l-6.29-6.29A1,1,0,0,0,38,35H25a2,2,0,0,1-2-2V31H39a4,4,0,0,0,4-4V15h6a2,2,0,0,1,2,2ZM30,13H25V8a1,1,0,0,0-1-1H20a1,1,0,0,0-1,1v5H14a1,1,0,0,0-1,1v4a1,1,0,0,0,1,1h5v5a1,1,0,0,0,.29.71A1,1,0,0,0,20,25h4a1,1,0,0,0,1-1V19h5a1,1,0,0,0,1-1V14a1,1,0,0,0-.29-.71A1,1,0,0,0,30,13Zm-1,4H24a1,1,0,0,0-1,1v5H21V18a1,1,0,0,0-1-1H15V15h5a1,1,0,0,0,1-1V9h2v5a1,1,0,0,0,1,1h5Z"/></svg>
